lib/preview/nrk-logo-preview-nrk-tegnspraak-on-light.svg

<svg width="122" height="21" viewBox="0 0 122 21" fill="none" xmlns="http://www.w3.org/2000/svg">
<path d="M0 16.0029V4.00396H3.93719V16.0029H0ZM9.29381 5.91365L11.5581 16.0029H7.24917L4.54549 4.00396H6.96218C7.51635 3.99677 8.05406 4.19212 8.4745 4.55326C8.89562 4.89925 9.18495 5.37957 9.29381 5.91365ZM12.1495 16.0029V4.00396H16.0867V16.0029H12.1495ZM19.0605 8.56697C18.6362 8.57111 18.2188 8.4601 17.8525 8.24583C17.4912 8.03699 17.1911 7.73683 16.9823 7.37547C16.7678 7.0092 16.6568 6.59163 16.661 6.16719C16.6561 5.74533 16.7672 5.33025 16.9823 4.9673C17.1933 4.60986 17.4931 4.31296 17.8525 4.10539C18.2189 3.89137 18.6362 3.78038 19.0605 3.78425C19.4822 3.77971 19.8971 3.8908 20.2602 4.10539C20.616 4.31478 20.9127 4.61143 21.122 4.9673C21.3368 5.33035 21.4479 5.74536 21.4433 6.16719C21.4473 6.5916 21.3363 7.0091 21.122 7.37547C20.9149 7.73524 20.6179 8.03515 20.2602 8.24583C19.8971 8.46085 19.4819 8.57196 19.0599 8.56697H19.0605ZM22.0516 16.0029V4.00396H25.9892V16.0029H22.0516ZM30.9737 10.5611C30.9848 10.5727 31.0693 10.7108 31.2272 10.9751C31.3851 11.2395 31.5906 11.5776 31.8439 11.9892C32.0974 12.4006 32.3649 12.8371 32.6463 13.2989C32.9278 13.7606 33.1926 14.1972 33.4408 14.6086C33.6881 15.0201 33.9697 15.4848 34.2857 16.0029H29.9598C29.6893 15.5635 29.4441 15.1663 29.2245 14.8114C29.0048 14.4565 28.7713 14.0735 28.5238 13.6622C28.2758 13.2514 28.0306 12.8514 27.7882 12.4623C27.5458 12.0733 27.3375 11.7325 27.1633 11.4399C26.9883 11.1472 26.8671 10.95 26.7997 10.8484C26.6325 10.5963 26.5336 10.3052 26.5127 10.0034C26.5294 9.7138 26.6226 9.43385 26.7828 9.19198C26.8504 9.07931 26.9743 8.8793 27.1545 8.592C27.3348 8.3047 27.546 7.96392 27.7882 7.56959C28.0304 7.17526 28.2756 6.77247 28.5238 6.36124C28.772 5.95001 29.0056 5.5641 29.2245 5.20357C29.4445 4.84342 29.6897 4.44345 29.9598 4.00368H34.2857L30.9396 9.46237C30.8361 9.62443 30.7777 9.81121 30.7706 10.0034C30.7818 10.2052 30.8522 10.3992 30.9731 10.5611H30.9737Z" fill="#0A2343"/>
<path d="M38.8571 5.476H42.7353V16.0099H44.5135V5.476H48.3751V3.98566H38.8571V5.476Z" fill="#1767CE"/>
<path d="M56.538 8.4651C56.213 8.04374 55.7841 7.71404 55.2933 7.50826C54.748 7.2857 54.1632 7.17622 53.5743 7.18648C52.9811 7.17641 52.3924 7.29183 51.8469 7.5252C51.3507 7.74245 50.9084 8.06623 50.5513 8.47358C50.1835 8.90153 49.9068 9.39999 49.7381 9.9385C49.5452 10.5549 49.451 11.1979 49.459 11.8437C49.435 12.6598 49.6062 13.4697 49.9583 14.2062C50.2802 14.8445 50.8001 15.3614 51.4402 15.6796C52.1913 16.0334 53.0154 16.2046 53.8453 16.1792C54.2445 16.1827 54.6434 16.1572 55.039 16.103C55.3696 16.0554 55.6955 15.9789 56.0127 15.8744C56.3274 15.7688 56.6334 15.6386 56.9276 15.4849L57.0461 14.1808C56.8314 14.2599 56.614 14.3389 56.3938 14.4179C56.1737 14.497 55.945 14.5675 55.7079 14.6296C55.4688 14.6923 55.2254 14.7376 54.9797 14.7651C54.7324 14.7933 54.4837 14.8074 54.2348 14.8075C53.7901 14.8146 53.3463 14.7663 52.9136 14.6635C52.5645 14.5801 52.2416 14.4114 51.9739 14.1724C51.7032 13.9147 51.5047 13.5907 51.3981 13.2324C51.2874 12.8697 51.2253 12.4938 51.2135 12.1147H57.3337C57.417 11.4143 57.3856 10.705 57.2406 10.0147C57.1215 9.45335 56.8818 8.92459 56.538 8.4651ZM52.2703 8.87156C52.6676 8.63035 53.1264 8.50974 53.591 8.52438C54.0561 8.50113 54.5156 8.63539 54.895 8.90544C55.2324 9.17455 55.4731 9.54604 55.5809 9.96391C55.6653 10.2729 55.7069 10.592 55.7045 10.9123H51.2505C51.2821 10.5746 51.3543 10.242 51.4656 9.92157C51.6102 9.49214 51.8932 9.12284 52.2703 8.87156Z" fill="#1767CE"/>
<path d="M64.8785 7.40664C64.6198 7.33582 64.3567 7.28209 64.091 7.24577C63.7878 7.205 63.4821 7.18519 63.1762 7.18649C62.6237 7.18422 62.0764 7.29367 61.5673 7.50826C61.0571 7.72423 60.594 8.03774 60.204 8.43124C59.7883 8.85554 59.4679 9.36362 59.2641 9.92157C59.0278 10.5755 58.913 11.2671 58.9254 11.9623C58.9068 12.7271 59.054 13.4868 59.3569 14.1893C59.6225 14.7901 60.0621 15.2974 60.6189 15.6458C61.2282 16.0052 61.9269 16.1843 62.634 16.1623C63.2551 16.1601 63.8701 16.0394 64.4461 15.8066C64.7902 15.6664 65.1147 15.4821 65.4114 15.2582V15.722C65.4183 16.1035 65.3641 16.4838 65.2508 16.8482C65.153 17.1539 64.9848 17.4323 64.7596 17.6611C64.517 17.8941 64.22 18.0629 63.8957 18.1522C63.4738 18.2681 63.0374 18.3223 62.6001 18.3131C62.2522 18.3126 61.9046 18.2928 61.5588 18.2538C61.1957 18.2128 60.8362 18.1449 60.4831 18.0506C60.1196 17.9537 59.7632 17.8321 59.4162 17.6865L59.6025 19.1768C59.9139 19.3032 60.2338 19.4079 60.5596 19.4901C60.9023 19.5767 61.2501 19.6417 61.6009 19.6849C61.9717 19.7305 62.345 19.7531 62.7186 19.7526C63.5522 19.7787 64.3806 19.6136 65.1404 19.27C65.7574 18.9827 66.2737 18.5165 66.6223 17.9321C66.9634 17.3314 67.1361 16.6497 67.1221 15.9591V7.18649L65.4656 7.6127C65.2744 7.53175 65.0783 7.46292 64.8785 7.40664ZM65.1915 14.1893C64.9817 14.3113 64.7639 14.4188 64.5395 14.5111C64.3418 14.5923 64.1379 14.6574 63.9298 14.7058C63.7271 14.7517 63.5198 14.7744 63.312 14.7736C62.8032 14.792 62.2984 14.6782 61.8468 14.4433C61.4532 14.2187 61.1485 13.8661 60.9833 13.4441C60.7792 12.8948 60.6842 12.3109 60.7039 11.7252C60.6962 11.2578 60.7619 10.7921 60.8984 10.345C61.0093 9.97748 61.2003 9.63914 61.4575 9.35423C61.708 9.08934 62.0146 8.88391 62.3548 8.75302C62.7414 8.60653 63.1523 8.5347 63.5657 8.54132C63.8326 8.54112 64.099 8.56378 64.362 8.60906C64.6312 8.6566 64.8971 8.72166 65.1579 8.80382C65.2409 8.82979 65.3273 8.86422 65.4119 8.89583V14.0589C65.3374 14.1035 65.2615 14.1492 65.1915 14.1893Z" fill="#1767CE"/>
<path d="M76.3859 7.54213C75.8827 7.288 75.3233 7.16563 74.76 7.18649C74.2685 7.18744 73.78 7.26457 73.3121 7.41511C72.8298 7.56874 72.3711 7.78814 71.9488 8.06713C71.7853 8.17467 71.6281 8.29293 71.4746 8.4143V7.20342L69.7471 7.45746V16.0099H71.4746V9.57777C71.6418 9.47985 71.8142 9.39109 71.9911 9.31188C72.229 9.20658 72.4721 9.11332 72.7193 9.03245C72.9572 8.95472 73.2006 8.89527 73.4475 8.85462C73.6798 8.81596 73.9149 8.79615 74.1504 8.79536C74.4267 8.78895 74.702 8.83197 74.9633 8.92238C75.1788 9.00004 75.3711 9.13114 75.5221 9.30342C75.6776 9.49022 75.7878 9.71048 75.8439 9.94696C75.9161 10.2463 75.9502 10.5536 75.9455 10.8615V16.0099H77.6729V10.5058C77.6955 9.86381 77.586 9.22398 77.3512 8.62599C77.1599 8.16677 76.82 7.78509 76.3859 7.54213Z" fill="#1767CE"/>
<path d="M85.5815 12.1147C85.4081 11.931 85.2084 11.774 84.9888 11.649C84.7615 11.5188 84.5234 11.4083 84.2772 11.3187C84.0966 11.2623 83.9188 11.203 83.7438 11.1409C83.5688 11.0788 83.3938 11.0224 83.2188 10.9715C83.0438 10.9207 82.8744 10.8671 82.7107 10.8107C82.5572 10.7584 82.4073 10.6962 82.2619 10.6244C82.1227 10.5505 81.9896 10.4655 81.8639 10.3703C81.7479 10.2829 81.6502 10.1736 81.5763 10.0486C81.5015 9.92017 81.4634 9.77375 81.4659 9.62519C81.4614 9.46191 81.5025 9.3006 81.5848 9.15946C81.6732 9.02081 81.7956 8.90713 81.9404 8.82922C82.1176 8.73187 82.3091 8.66326 82.5077 8.62599C82.7561 8.57835 83.0085 8.55566 83.2614 8.55825C83.3853 8.55825 83.5208 8.56417 83.6678 8.57518C83.8149 8.58619 83.9752 8.60652 84.1505 8.63446C84.3258 8.66241 84.5002 8.69967 84.6752 8.74455C84.8502 8.78943 85.028 8.84051 85.209 8.89696C85.3764 8.94843 85.5404 9.01065 85.6998 9.08324L85.8186 7.71147C85.6039 7.62115 85.3922 7.54213 85.1835 7.47439C84.975 7.4068 84.763 7.35026 84.5485 7.30502C84.3389 7.26063 84.1268 7.22954 83.9134 7.21189C83.7043 7.19495 83.4983 7.18648 83.2953 7.18648C82.8274 7.18169 82.3609 7.23575 81.9065 7.34737C81.518 7.44174 81.1485 7.60213 80.8142 7.82156C80.511 8.022 80.2634 8.2958 80.0944 8.61753C79.9174 8.97202 79.8302 9.36457 79.8404 9.76067C79.8352 10.046 79.8812 10.3299 79.9762 10.599C80.0564 10.8248 80.1769 11.0342 80.3318 11.2171C80.4824 11.3899 80.6562 11.5409 80.8483 11.6659C81.0483 11.7971 81.2611 11.9078 81.4834 11.9961C81.6074 12.0413 81.7373 12.0865 81.8729 12.1316C82.0086 12.1768 82.1413 12.2191 82.2709 12.2586C82.4005 12.2984 82.5275 12.3377 82.6517 12.3772C82.7759 12.4167 82.8973 12.4562 83.0158 12.4958C83.1344 12.5353 83.2501 12.572 83.3633 12.6058C83.5147 12.6595 83.6618 12.7246 83.8033 12.8006C83.9276 12.8664 84.0442 12.9459 84.1508 13.0377C84.2445 13.1196 84.3195 13.2206 84.3706 13.334C84.4226 13.4513 84.4487 13.5784 84.4471 13.7066C84.4532 13.8319 84.4312 13.957 84.3828 14.0727C84.3344 14.1884 84.2608 14.2919 84.1674 14.3756C83.9578 14.5508 83.7073 14.6702 83.4392 14.7228C83.1251 14.7921 82.8043 14.8262 82.4826 14.8244C82.2815 14.823 82.0807 14.8088 81.8814 14.782C81.6613 14.7542 81.4298 14.7147 81.1871 14.6635C80.9443 14.6123 80.6959 14.5502 80.4416 14.4772C80.1878 14.404 79.931 14.3222 79.6713 14.2316L79.7391 15.6712C80.0323 15.7728 80.3004 15.8546 80.5435 15.9167C80.7866 15.9788 81.0181 16.0324 81.2379 16.0776C81.45 16.1216 81.6651 16.1499 81.8814 16.1623C82.0901 16.1736 82.3018 16.1792 82.5165 16.1792C82.9888 16.1816 83.4599 16.1334 83.9219 16.0353C84.3286 15.9526 84.7181 15.8008 85.0735 15.5865C85.3938 15.3909 85.6591 15.117 85.8443 14.7905C86.0382 14.4322 86.1344 14.0292 86.1235 13.622C86.1306 13.3248 86.0817 13.0289 85.9795 12.7498C85.8886 12.5146 85.7535 12.2991 85.5815 12.1147Z" fill="#1767CE"/>
<path d="M94.6844 7.71994C94.0766 7.34779 93.3728 7.16229 92.6606 7.18647C92.2378 7.18854 91.8169 7.24258 91.4073 7.34736C90.9646 7.45986 90.5379 7.62772 90.1372 7.84696C90.0576 7.89015 89.9788 7.93813 89.9001 7.98668V7.20341L88.1727 7.47438V19.5663H89.9001V15.7747C89.9117 15.7795 89.9224 15.7849 89.934 15.7897C90.2468 15.9197 90.5735 16.0135 90.9077 16.0691C91.3023 16.1342 91.7018 16.1654 92.1017 16.1623C92.8642 16.1754 93.6161 15.9823 94.2779 15.6034C94.9278 15.2181 95.456 14.6576 95.8021 13.9861C96.2021 13.1854 96.3971 12.298 96.3694 11.4034C96.3852 10.6471 96.2381 9.8962 95.9379 9.2018C95.6727 8.59665 95.2372 8.08176 94.6844 7.71994ZM94.2356 13.3849C94.0321 13.8346 93.6911 14.2082 93.2618 14.4518C92.7845 14.7018 92.2507 14.8243 91.7122 14.8074C91.4542 14.8076 91.1966 14.7877 90.9416 14.7482C90.6741 14.7055 90.4107 14.6403 90.1541 14.5534C90.0728 14.5252 89.9848 14.493 89.9001 14.462V9.1174C89.9227 9.10696 89.9455 9.0934 89.9678 9.08324C90.2158 8.97034 90.4473 8.87438 90.6622 8.79535C90.8653 8.71952 91.0751 8.66281 91.2888 8.62598C91.479 8.59326 91.6716 8.57627 91.8646 8.57518C92.3867 8.55788 92.9048 8.67142 93.3719 8.90543C93.7803 9.12777 94.1 9.48343 94.2779 9.91308C94.4934 10.4627 94.5943 11.0505 94.5746 11.6405C94.5925 12.2399 94.4767 12.8358 94.2356 13.3849Z" fill="#1767CE"/>
<path d="M102.008 7.31293C101.692 7.39781 101.389 7.52907 101.111 7.70245C100.822 7.88274 100.555 8.09585 100.315 8.33753C100.275 8.37733 100.236 8.4222 100.197 8.46425V7.20284L98.4689 7.45688V16.0093H100.197V9.61108C100.325 9.52144 100.458 9.43835 100.595 9.36213C100.764 9.26883 100.939 9.1868 101.12 9.11656C101.294 9.04882 101.472 8.98954 101.653 8.93874C101.839 8.88702 102.028 8.8502 102.22 8.82865C102.425 8.80585 102.632 8.80018 102.839 8.81172L103.042 7.21978C102.695 7.19484 102.346 7.2263 102.008 7.31293Z" fill="#1767CE"/>
<path d="M111.95 14.9429C111.826 14.9543 111.701 14.9356 111.586 14.8884C111.471 14.8412 111.369 14.767 111.289 14.672C111.132 14.4006 111.067 14.0858 111.103 13.7744L111.137 10.2857C111.141 9.91993 111.095 9.55536 111.001 9.2018C110.919 8.89173 110.781 8.59911 110.595 8.33809C110.407 8.0828 110.167 7.86942 109.892 7.71147C109.573 7.53006 109.227 7.39869 108.868 7.32195C108.428 7.22701 107.979 7.18157 107.53 7.18647C107.173 7.18632 106.817 7.20894 106.463 7.25421C106.128 7.29629 105.797 7.36136 105.472 7.44897C105.17 7.53083 104.873 7.62978 104.583 7.74534L104.38 9.18487C104.662 9.08325 104.93 8.99857 105.184 8.93083C105.438 8.86309 105.684 8.80664 105.921 8.76148C106.153 8.71709 106.388 8.68599 106.624 8.66833C106.855 8.65139 107.083 8.64292 107.309 8.64292C107.655 8.63565 108 8.67555 108.334 8.76148C108.578 8.82257 108.803 8.94499 108.986 9.11713C109.149 9.28459 109.266 9.49183 109.325 9.71832C109.397 9.99753 109.431 10.2852 109.426 10.5736L109.424 10.9986L107.445 11.1324C106.768 11.1513 106.101 11.3008 105.48 11.5728C105.016 11.7759 104.615 12.1006 104.32 12.5127C104.07 12.8794 103.937 13.3135 103.939 13.7574C103.936 14.174 104.038 14.5847 104.236 14.9514C104.443 15.3281 104.755 15.6369 105.133 15.8405C105.595 16.0808 106.112 16.1975 106.632 16.1792C107.12 16.1904 107.605 16.11 108.063 15.9421C108.459 15.7871 108.821 15.5571 109.13 15.2647C109.247 15.1523 109.358 15.0339 109.463 14.9099C109.496 15.0852 109.558 15.2538 109.647 15.4087C109.798 15.6679 110.03 15.8703 110.307 15.9845C110.614 16.1076 110.942 16.1681 111.272 16.1623C111.374 16.1623 111.473 16.1595 111.569 16.1538C111.663 16.1481 111.756 16.134 111.848 16.1115C111.938 16.0886 112.02 16.0691 112.094 16.0522C112.16 16.0374 112.225 16.0176 112.289 15.9929L112.475 14.8582C112.381 14.8903 112.285 14.913 112.187 14.926C112.108 14.9365 112.029 14.9421 111.95 14.9429ZM109.13 14.1808C108.946 14.326 108.748 14.451 108.537 14.5534C108.328 14.6552 108.106 14.7292 107.877 14.7736C107.64 14.8193 107.399 14.8419 107.157 14.8413C106.881 14.8492 106.607 14.7972 106.353 14.6889C106.146 14.5992 105.972 14.4485 105.853 14.257C105.736 14.054 105.677 13.8225 105.684 13.5881C105.667 13.3057 105.745 13.0259 105.904 12.7921C106.088 12.5769 106.338 12.4282 106.615 12.3687C107.048 12.2668 107.492 12.2212 107.936 12.2333H109.419L109.411 13.9141C109.326 14.0109 109.231 14.1002 109.13 14.1808Z" fill="#1767CE"/>
<path d="M106.539 5.83164C106.859 5.983 107.21 6.05834 107.563 6.05179C107.927 6.05892 108.286 5.9806 108.613 5.82316C108.909 5.67965 109.158 5.45682 109.333 5.17963C109.514 4.88147 109.605 4.5375 109.596 4.1889C109.607 3.93603 109.562 3.68383 109.466 3.44985C109.369 3.21587 109.223 3.00574 109.037 2.83406C108.64 2.48642 108.125 2.30453 107.597 2.32598C107.245 2.322 106.895 2.3942 106.573 2.53768C106.27 2.67236 106.014 2.89325 105.836 3.17276C105.648 3.48358 105.553 3.8425 105.565 4.20583C105.553 4.55737 105.645 4.90468 105.828 5.20502C106.002 5.47564 106.248 5.69256 106.539 5.83164ZM106.81 3.39293C106.917 3.29816 107.041 3.22544 107.177 3.17894C107.312 3.13244 107.455 3.11307 107.597 3.12195C107.807 3.11249 108.016 3.16238 108.199 3.26591C108.347 3.35684 108.464 3.4894 108.537 3.64697C108.613 3.81737 108.651 4.00237 108.647 4.1889C108.651 4.37632 108.61 4.56193 108.529 4.73083C108.452 4.8865 108.332 5.01612 108.182 5.10341C107.997 5.20158 107.789 5.24837 107.58 5.23889C107.382 5.24477 107.185 5.20418 107.005 5.12035C106.85 5.04495 106.724 4.91971 106.649 4.7647C106.565 4.58459 106.525 4.38744 106.53 4.1889C106.52 4.04416 106.539 3.89883 106.588 3.76191C106.636 3.62499 106.711 3.49941 106.81 3.39293Z" fill="#1767CE"/>
<path d="M119.3 16.0099H121.535L117.427 11.3808L121.45 7.37276H119.333L116.435 10.5566H115.811V3.22358L114.083 3.4776V16.0099H115.811V11.8607H115.839L119.3 16.0099Z" fill="#1767CE"/>
</svg>

<svg xmlns="http://www.w3.org/2000/svg" viewBox="0 0 122 21"><path fill="#0A2343" d="M0 16.003V4.004h3.937v11.999H0Zm9.294-10.09 2.264 10.09H7.25L4.545 4.004h2.417a2.276 2.276 0 0 1 1.513.55c.42.345.71.826.819 1.36Zm2.855 10.09V4.004h3.938v11.999h-3.938Zm6.912-7.436a2.382 2.382 0 0 1-2.4-2.4 2.301 2.301 0 0 1 .321-1.2 2.41 2.41 0 0 1 3.278-.862c.356.21.653.506.862.862.215.363.326.778.321 1.2a2.35 2.35 0 0 1-.321 1.208 2.4 2.4 0 0 1-.862.87 2.302 2.302 0 0 1-1.2.322Zm2.99 7.436V4.004h3.938v11.999h-3.937Zm8.923-5.442c.01.012.095.15.253.414s.364.603.617 1.014a309.436 309.436 0 0 1 1.597 2.62c.247.411.529.876.845 1.394H29.96c-.27-.44-.516-.837-.736-1.192-.22-.354-.453-.738-.7-1.149-.248-.41-.493-.81-.736-1.2a60.12 60.12 0 0 1-.625-1.022 18.04 18.04 0 0 0-.363-.592 1.747 1.747 0 0 1-.287-.845c.016-.29.11-.57.27-.811.067-.113.191-.313.371-.6s.392-.628.634-1.022c.242-.395.488-.798.736-1.209l.7-1.157.736-1.2h4.326L30.94 9.462a1.08 1.08 0 0 0-.17.541c.012.202.082.396.203.558Z"/><path fill="#1767CE" d="M38.857 5.476h3.878V16.01h1.779V5.476h3.861v-1.49h-9.518v1.49ZM56.538 8.465a3.072 3.072 0 0 0-1.245-.957 4.349 4.349 0 0 0-1.719-.322 4.21 4.21 0 0 0-1.727.34 3.692 3.692 0 0 0-1.296.948 4.152 4.152 0 0 0-.813 1.464 6.125 6.125 0 0 0-.279 1.906 5.128 5.128 0 0 0 .5 2.362 3.31 3.31 0 0 0 1.481 1.474 5.266 5.266 0 0 0 2.405.5c.4.003.798-.023 1.194-.077.33-.048.657-.124.974-.229.314-.105.62-.235.915-.39l.118-1.303-.652.237c-.22.079-.449.15-.686.212-.24.062-.483.108-.728.135a6.598 6.598 0 0 1-.745.042 5.346 5.346 0 0 1-1.321-.143 2.167 2.167 0 0 1-.94-.492 2.14 2.14 0 0 1-.576-.94 4.286 4.286 0 0 1-.184-1.117h6.12c.083-.7.052-1.41-.093-2.1a3.958 3.958 0 0 0-.703-1.55Zm-4.268.407a2.4 2.4 0 0 1 1.321-.348 2.07 2.07 0 0 1 1.304.381c.337.27.578.641.686 1.059a3.5 3.5 0 0 1 .123.948h-4.453c.031-.337.103-.67.215-.99.144-.43.427-.8.804-1.05ZM64.879 7.407a6.124 6.124 0 0 0-.788-.161 6.653 6.653 0 0 0-.915-.06 4.099 4.099 0 0 0-1.609.322c-.51.216-.973.53-1.363.923a4.178 4.178 0 0 0-.94 1.49 5.705 5.705 0 0 0-.339 2.041 5.3 5.3 0 0 0 .432 2.227c.266.601.705 1.108 1.262 1.457.61.36 1.308.538 2.015.516a4.882 4.882 0 0 0 1.812-.355 4.29 4.29 0 0 0 .965-.549v.464c.007.382-.047.762-.16 1.126a2.049 2.049 0 0 1-.491.813c-.243.233-.54.402-.864.491-.422.116-.859.17-1.296.161-.348 0-.695-.02-1.041-.06a7.376 7.376 0 0 1-1.076-.202 8.248 8.248 0 0 1-1.067-.364l.187 1.49c.31.126.63.23.957.313.342.087.69.152 1.04.195.372.046.745.068 1.119.068a5.462 5.462 0 0 0 2.421-.483 3.394 3.394 0 0 0 1.482-1.338c.341-.6.514-1.282.5-1.973V7.186l-1.656.427a4.944 4.944 0 0 0-.587-.206Zm.313 6.782a5.33 5.33 0 0 1-.652.322 3.975 3.975 0 0 1-.61.195 2.75 2.75 0 0 1-.618.068 2.944 2.944 0 0 1-1.465-.33 1.982 1.982 0 0 1-.864-1 4.5 4.5 0 0 1-.28-1.719 4.474 4.474 0 0 1 .195-1.38 2.6 2.6 0 0 1 .56-.99c.25-.266.557-.471.897-.602a3.27 3.27 0 0 1 1.21-.212c.268 0 .534.023.797.068.27.048.535.113.796.195.083.026.17.06.254.092v5.163c-.075.045-.15.09-.22.13ZM76.386 7.542a3.333 3.333 0 0 0-1.626-.356c-.492.001-.98.079-1.448.23a5.503 5.503 0 0 0-1.363.651 6.75 6.75 0 0 0-.474.347v-1.21l-1.728.253v8.553h1.728V9.578c.167-.098.34-.187.516-.266.238-.105.481-.199.728-.28.238-.077.482-.137.729-.177.232-.039.467-.059.702-.06.277-.006.552.037.813.127.216.078.408.21.56.381.155.187.265.407.32.644.073.3.107.607.102.915v5.148h1.728v-5.504a4.692 4.692 0 0 0-.322-1.88 2.22 2.22 0 0 0-.965-1.084ZM85.582 12.115a2.55 2.55 0 0 0-.593-.466 4.59 4.59 0 0 0-.712-.33 14.68 14.68 0 0 1-.533-.178 9.519 9.519 0 0 0-.525-.17c-.175-.05-.345-.104-.508-.16a3.732 3.732 0 0 1-.45-.187 2.952 2.952 0 0 1-.397-.254 1.11 1.11 0 0 1-.288-.321.814.814 0 0 1-.11-.424.877.877 0 0 1 .119-.466.963.963 0 0 1 .355-.33 1.91 1.91 0 0 1 .568-.203c.248-.048.5-.07.753-.068a5.485 5.485 0 0 1 .89.076c.175.028.35.066.524.11.175.045.353.097.534.153.167.051.331.114.49.186l.12-1.372a8.04 8.04 0 0 0-.636-.237 6.226 6.226 0 0 0-.635-.169 5.09 5.09 0 0 0-.635-.093 7.653 7.653 0 0 0-.618-.026 5.582 5.582 0 0 0-1.389.161 3.493 3.493 0 0 0-1.092.475c-.303.2-.55.474-.72.796a2.42 2.42 0 0 0-.254 1.143c-.005.285.041.569.136.838.08.226.2.435.356.618.15.173.324.324.516.449.2.131.413.242.635.33a14.51 14.51 0 0 0 .788.263 40.187 40.187 0 0 1 .745.237c.118.04.234.076.347.11.152.053.299.119.44.195.125.065.241.145.348.237a.866.866 0 0 1 .296.669.843.843 0 0 1-.28.669c-.21.175-.46.294-.728.347-.314.07-.635.103-.956.101a4.76 4.76 0 0 1-.602-.042 8.581 8.581 0 0 1-.694-.118 10.72 10.72 0 0 1-.745-.187c-.254-.073-.511-.155-.77-.245l.067 1.44c.293.1.561.183.804.245.244.062.475.115.695.16.212.045.427.073.643.085.21.012.42.017.635.017.473.003.944-.046 1.406-.144a3.632 3.632 0 0 0 1.151-.449c.32-.195.586-.469.771-.796.194-.358.29-.76.28-1.168a2.372 2.372 0 0 0-.144-.872 1.975 1.975 0 0 0-.398-.635ZM94.684 7.72a3.64 3.64 0 0 0-2.023-.534 5.159 5.159 0 0 0-1.254.161 5.435 5.435 0 0 0-1.507.64v-.784l-1.727.271v12.092H89.9v-3.791l.034.015c.313.13.64.224.974.28.394.064.794.095 1.194.092a4.234 4.234 0 0 0 2.176-.559 4.023 4.023 0 0 0 1.524-1.617c.4-.8.595-1.688.567-2.583a5.27 5.27 0 0 0-.431-2.201 3.404 3.404 0 0 0-1.254-1.482Zm-.448 5.665c-.204.45-.545.823-.974 1.067a3.128 3.128 0 0 1-1.55.355 4.827 4.827 0 0 1-1.812-.345V9.117c.023-.01.045-.024.068-.034.248-.113.48-.209.694-.288a3.482 3.482 0 0 1 1.203-.22 3.133 3.133 0 0 1 1.507.33c.408.223.728.578.906 1.008.215.55.316 1.137.297 1.727a4.04 4.04 0 0 1-.34 1.745ZM102.008 7.313a3.328 3.328 0 0 0-.897.39c-.289.18-.556.393-.796.635-.04.04-.079.084-.118.126V7.203l-1.728.254v8.552h1.728V9.611a4.316 4.316 0 0 1 .923-.495c.174-.067.352-.126.533-.177a3.62 3.62 0 0 1 1.186-.127l.203-1.592a3.23 3.23 0 0 0-1.034.093ZM111.95 14.943a.773.773 0 0 1-.661-.271 1.458 1.458 0 0 1-.186-.898l.034-3.488a4.046 4.046 0 0 0-.136-1.084 2.662 2.662 0 0 0-.406-.864 2.289 2.289 0 0 0-.703-.627 3.592 3.592 0 0 0-1.024-.39 6.033 6.033 0 0 0-1.338-.135 8.38 8.38 0 0 0-1.067.068 7.304 7.304 0 0 0-.991.195c-.302.082-.599.18-.889.296l-.203 1.44a9.922 9.922 0 0 1 1.541-.424c.232-.044.467-.075.703-.093.231-.017.459-.025.685-.025.346-.007.691.033 1.025.118.244.062.469.184.652.356.163.168.28.375.339.601.072.28.106.567.101.856l-.002.425-1.979.133a5.263 5.263 0 0 0-1.965.44 2.815 2.815 0 0 0-1.16.94c-.25.367-.383.801-.381 1.245-.003.417.099.828.297 1.194.207.377.519.686.897.89.462.24.979.357 1.499.338.488.011.973-.069 1.431-.237a3.305 3.305 0 0 0 1.067-.677c.117-.113.228-.231.333-.355.033.175.095.344.184.499.151.259.383.461.66.575.307.124.635.184.965.178.102 0 .201-.002.297-.008.094-.006.187-.02.279-.043l.246-.059a1.38 1.38 0 0 0 .195-.06l.186-1.134a1.5 1.5 0 0 1-.288.068c-.079.01-.158.016-.237.017Zm-2.82-.762a3.24 3.24 0 0 1-.593.372 2.666 2.666 0 0 1-.66.22 3.753 3.753 0 0 1-.72.068 1.91 1.91 0 0 1-.804-.152 1.107 1.107 0 0 1-.5-.432 1.264 1.264 0 0 1-.169-.669 1.28 1.28 0 0 1 .22-.796c.184-.215.434-.364.711-.423a5.154 5.154 0 0 1 1.321-.136h1.483l-.008 1.681c-.085.097-.18.186-.281.267ZM106.539 5.832c.32.151.671.226 1.024.22.364.007.723-.071 1.05-.229.296-.143.545-.366.72-.643.181-.299.272-.643.263-.991a1.748 1.748 0 0 0-.559-1.355 2.058 2.058 0 0 0-1.44-.508 2.45 2.45 0 0 0-1.024.212 1.685 1.685 0 0 0-.737.635c-.188.31-.283.67-.271 1.033-.012.351.08.699.263.999.174.27.42.488.711.627Zm.271-2.44a1.079 1.079 0 0 1 .787-.27c.21-.01.419.04.602.144a.88.88 0 0 1 .338.381c.076.17.114.355.11.542.004.187-.037.373-.118.542a.883.883 0 0 1-.347.372 1.171 1.171 0 0 1-.602.136 1.273 1.273 0 0 1-.575-.119.77.77 0 0 1-.356-.355 1.285 1.285 0 0 1-.119-.576 1.052 1.052 0 0 1 .28-.796ZM119.3 16.01h2.235l-4.108-4.63 4.023-4.007h-2.117l-2.898 3.184h-.624V3.224l-1.728.254V16.01h1.728v-4.15h.028l3.461 4.15Z"/></svg>
